X: 18
T:Good-Natured Man, The
M:4/4
L:1/8
R:Hornpipe
K:G
g2bg d2gd|BcdB G2AB|c2cB cBAG|FGAF D2Bd|!
g2bg d2gd|BcdB G2AB|cded cBAG|1(3ABA G2 G2Bd:|2(3ABA G2 GABc|!
|:d2dB g2gf|e2ec a2ag|f2fa g2ge|fgaf defd|!
g2bg d2gd|BcdB G2AB|cded cBAG|1(3ABA G2 GABc:|2(3ABA G2 G2Bd|]!
